svg/timeout.svg

<?xml version="1.0" encoding="UTF-8"?>
<svg xmlns="http://www.w3.org/2000/svg" xmlns:xlink="http://www.w3.org/1999/xlink" width="32" height="32" viewBox="0 0 32 32">
<path fill-rule="nonzero" fill="rgb(0%, 0%, 0%)" fill-opacity="1" d="M 16.035156 1.28125 C 7.898438 1.261719 1.28125 7.867188 1.28125 16 L 1.28125 16.015625 C 1.285156 16.371094 1.574219 16.652344 1.929688 16.648438 C 2.28125 16.644531 2.5625 16.351562 2.558594 16 C 2.558594 8.332031 8.960938 2.175781 16.71875 2.578125 C 23.507812 2.929688 29.070312 8.492188 29.421875 15.28125 C 29.8125 22.828125 24 29.089844 16.625 29.425781 C 16.28125 29.433594 16.003906 29.71875 16 30.0625 C 16 30.421875 16.296875 30.722656 16.65625 30.703125 C 25.023438 30.335938 31.585938 22.964844 30.625 14.320312 C 29.875 7.5625 24.4375 2.125 17.679688 1.375 C 17.136719 1.3125 16.585938 1.28125 16.035156 1.28125 M 16 3.839844 C 9.285156 3.839844 3.839844 9.285156 3.839844 16 C 3.839844 22.714844 9.285156 28.160156 16 28.160156 C 22.714844 28.160156 28.160156 22.714844 28.160156 16 C 28.160156 9.285156 22.714844 3.839844 16 3.839844 M 15.988281 5.75 L 16.007812 5.75 C 16.359375 5.757812 16.644531 6.046875 16.640625 6.398438 L 16.640625 14.191406 C 17.1875 14.382812 17.617188 14.8125 17.808594 15.359375 L 23.058594 15.359375 C 23.226562 15.363281 23.390625 15.429688 23.507812 15.554688 C 23.625 15.675781 23.691406 15.839844 23.6875 16.007812 C 23.683594 16.179688 23.617188 16.339844 23.496094 16.460938 C 23.371094 16.578125 23.210938 16.644531 23.039062 16.640625 L 17.808594 16.640625 C 17.535156 17.40625 16.8125 17.917969 16 17.921875 C 15.191406 17.914062 14.472656 17.40625 14.199219 16.648438 C 13.84375 15.648438 14.363281 14.550781 15.359375 14.191406 L 15.359375 6.398438 C 15.355469 6.046875 15.636719 5.757812 15.988281 5.75 M 2.160156 17.839844 C 1.921875 17.828125 1.699219 17.945312 1.574219 18.148438 C 1.453125 18.351562 1.453125 18.605469 1.574219 18.8125 C 1.699219 19.015625 1.921875 19.132812 2.160156 19.121094 C 2.5 19.101562 2.765625 18.820312 2.765625 18.480469 C 2.765625 18.140625 2.5 17.859375 2.160156 17.839844 M 2.878906 20.320312 C 2.523438 20.320312 2.238281 20.605469 2.238281 20.960938 C 2.238281 21.316406 2.523438 21.601562 2.878906 21.601562 C 3.234375 21.601562 3.519531 21.316406 3.519531 20.960938 C 3.519531 20.605469 3.234375 20.320312 2.878906 20.320312 M 3.921875 22.558594 C 3.582031 22.578125 3.316406 22.859375 3.316406 23.199219 C 3.316406 23.539062 3.582031 23.820312 3.921875 23.839844 C 4.277344 23.839844 4.5625 23.550781 4.5625 23.199219 C 4.5625 22.84375 4.277344 22.558594 3.921875 22.558594 M 5.441406 24.640625 C 5.097656 24.652344 4.828125 24.9375 4.828125 25.28125 C 4.828125 25.625 5.097656 25.90625 5.441406 25.921875 C 5.796875 25.921875 6.082031 25.632812 6.082031 25.28125 C 6.082031 24.925781 5.796875 24.640625 5.441406 24.640625 M 7.28125 26.398438 C 6.929688 26.398438 6.640625 26.683594 6.640625 27.039062 C 6.640625 27.390625 6.929688 27.679688 7.28125 27.679688 C 7.636719 27.679688 7.921875 27.390625 7.921875 27.039062 C 7.921875 26.683594 7.636719 26.398438 7.28125 26.398438 M 9.359375 27.761719 C 9.007812 27.761719 8.722656 28.046875 8.71875 28.398438 C 8.734375 28.742188 9.015625 29.011719 9.359375 29.011719 C 9.703125 29.011719 9.988281 28.742188 10 28.398438 C 10 28.042969 9.710938 27.761719 9.359375 27.761719 M 11.679688 28.800781 C 11.328125 28.800781 11.039062 29.085938 11.039062 29.441406 C 11.039062 29.792969 11.328125 30.082031 11.679688 30.082031 C 12.035156 30.082031 12.320312 29.792969 12.320312 29.441406 C 12.320312 29.269531 12.253906 29.105469 12.132812 28.988281 C 12.015625 28.867188 11.851562 28.800781 11.679688 28.800781 M 14.160156 29.359375 C 13.808594 29.359375 13.519531 29.644531 13.519531 30 C 13.519531 30.351562 13.808594 30.640625 14.160156 30.640625 C 14.515625 30.640625 14.804688 30.351562 14.804688 30 C 14.804688 29.644531 14.515625 29.359375 14.160156 29.359375 M 14.160156 29.359375 "/>
</svg>

<svg role="img" viewBox="0 0 32 32" height="32" width="32" xmlns="http://www.w3.org/2000/svg"><path d="M16.035 1.281C7.898 1.261 1.281 7.867 1.281 16v.016A.639.639 0 1 0 2.56 16c0-7.668 6.402-13.824 14.16-13.422 6.789.352 12.351 5.914 12.703 12.703.39 7.547-5.422 13.809-12.797 14.145a.642.642 0 0 0-.625.637c0 .359.297.66.656.64 8.367-.367 14.93-7.738 13.969-16.383-.75-6.757-6.187-12.195-12.945-12.945a14.662 14.662 0 0 0-1.645-.094M16 3.84C9.285 3.84 3.84 9.285 3.84 16S9.285 28.16 16 28.16 28.16 22.715 28.16 16 22.715 3.84 16 3.84m-.012 1.91h.02a.644.644 0 0 1 .633.648v7.793c.547.192.976.621 1.168 1.168h5.25a.638.638 0 0 1 .628.649.639.639 0 0 1-.648.633h-5.23A1.926 1.926 0 0 1 16 17.92a1.927 1.927 0 0 1-1.8-1.273 1.926 1.926 0 0 1 1.16-2.457V6.398a.643.643 0 0 1 .628-.648M2.16 17.84a.641.641 0 1 0 0 1.28.641.641 0 0 0 0-1.28m.719 2.48a.641.641 0 1 0 0 1.282.641.641 0 0 0 0-1.282m1.043 2.239a.641.641 0 0 0 0 1.28.64.64 0 0 0 0-1.281m1.52 2.082a.641.641 0 0 0 0 1.281.64.64 0 0 0 0-1.281m1.84 1.757a.641.641 0 1 0 0 1.282.641.641 0 0 0 0-1.282m2.077 1.364a.64.64 0 0 0-.64.636.641.641 0 0 0 1.281 0 .638.638 0 0 0-.64-.636m2.32 1.039a.641.641 0 0 0-.64.64.64.64 0 0 0 1.281 0 .639.639 0 0 0-.64-.64m2.481.558a.641.641 0 1 0 0 1.282.641.641 0 0 0 0-1.282m0 0"/></svg>
